X: 213
T:Pasacorredoiras de Ponteareas
M:2/4
L:1/16
Q:100
C:Trad
S:Casto Sampedro n 434
R:Pasacorredoiras
K:C
G3F CDEF | "tr."G8 | {A}"tr."G3F EFGA | "tr."F8 | "tr."A3F DEFG |
EFED CDEF | DEDC B,CDE |1 C8 :|2 C6 G2 | 
E2EF G2GE | "tr."F6 A2 | D2DE F2FD | "tr."E6 G2 | C2CD E2EC |
"tr."D6 F2 | B,2B,C D2DB, | "tr."C6G2 | E2EF GAGE | "tr."F6 A2 | 
D2DE FGFD | "tr."E6 G2 | C2CD EFEC | "tr."D6 F2 | B,2B,C DEDB, |
 C2CD EFEC | D2B,C DEDB, | C2CD EFEC | D2B,C DEDB, |C8 ||

% Output from ABC2Win  Version 2.1 h on 06/08/2000
